X: 838
T: Kit O'Mahony's hornpipe
C: anon.
O: Ireland
B: Francis O'Neill: "The Dance Music of Ireland" (1907) no. 838
R: hornpipe
Z: Transcribed by Frank Nordberg - http://www.musicaviva.com
F: http://www.musicaviva.com/abc/tunes/ireland/oneill-1001/oneill-1001-083
8.abc
M: C|
L: 1/8
K: G
(GA) | B2 (BG) A2 (AG) | FGAB cAGF | BGBd cAGF | D2 G2 G2 (GA) |\
B2 (BG) A2 (AG) | FGAB cAFD | fefd cAGF | D2 G2 G2 :|
|: D2 | GABc d2 g2 | defd cAGF | GABc d2 (ef) | gage d2 (ef) |\
gage fgfd | efed cdeg | ({g}f)efd cAGF | D2 G2 G2 :|
W:
W:
W: From Musica Viva - http://www.musicaviva.com
W: the Internet center for free sheet music downloads.


